src/pos-icons/floor-lamp-dual.svg

<svg height="24" viewBox="0 0 24 24" width="24" xmlns="http://www.w3.org/2000/svg"><path d="m11.73 10.06-1.56 1.18.83.96v7.8h-3v2h8v-2h-3v-7.7l.85-1.04-1.58-1.19zm-2.65.76-6.08-4.01 6.39-4.81 2.16 6.93zm5.53-8.82 6.39 4.81-6.08 4.01-2.48-1.87z"/></svg>

<?xml version="1.0" encoding="UTF-8"?><!DOCTYPE svg PUBLIC "-//W3C//DTD SVG 1.1//EN" "http://www.w3.org/Graphics/SVG/1.1/DTD/svg11.dtd"><svg xmlns="http://www.w3.org/2000/svg" xmlns:xlink="http://www.w3.org/1999/xlink" version="1.1" id="mdi-floor-lamp-dual" width="24" height="24" viewBox="0 0 24 24"><path d="M11.73 10.06L10.17 11.24L11 12.2V20H8V22H16V20H13V12.3L13.85 11.26L12.27 10.07L11.73 10.06M9.08 10.82L3 6.81L9.39 2L11.55 8.93L9.08 10.82M14.61 2L21 6.81L14.92 10.82L12.44 8.95L14.61 2Z" /></svg>
